plasma/desktoptheme/Materia-Color/icons/mellowplayer.svg

<?xml version="1.0" encoding="UTF-8"?>
<svg width="32" height="32" version="1.1" xmlns="http://www.w3.org/2000/svg">
 <defs id="materia">
  <style id="current-color-scheme" type="text/css">.ColorScheme-Background {color:#181818; } .ColorScheme-ButtonBackground { color:#343434; } .ColorScheme-Highlight { color:#4285f4; } .ColorScheme-Text { color:#dfdfdf; } .ColorScheme-ViewBackground { color:#242424; } .ColorScheme-NegativeText { color:#f44336; } .ColorScheme-PositiveText { color:#4caf50; } .ColorScheme-NeutralText { color:#ff9800; }</style>
 </defs>
 <g id="22-22-mellowplayer" transform="translate(34.01,10)">
  <rect x="-2.01" width="22" height="22" opacity=".001"/>
  <path class="ColorScheme-Text" d="m6.99 3a5 5 0 0 0-5 5 5 5 0 0 0 0.3047 1.6875 3 3 0 0 1 2.6953-1.6875 3 3 0 0 1 0.0059 0v-2.5957c3e-4 0-0.0227-0.2663 0.1855-0.3711 0.2023-0.1017 0.3965 0.0606 0.3965 0.0606l1.9687 1.1699a3 3 0 0 1 2.4434-1.2637 3 3 0 0 1 1.152 0.2324 5 5 0 0 0-4.152-2.2324zm5.24 3.0078a3 3 0 0 1 0.76 1.9922 3 3 0 0 1-0.309 1.3184l2.026 1.2046s0.283 0.14 0.283 0.473c0 0.334-0.287 0.443-0.287 0.443l-2.035 1.209a3 3 0 0 1 0.322 1.352 3 3 0 0 1-0.758 1.988 5 5 0 0 0 4.758-4.988 5 5 0 0 0-4.76-4.9922zm-9.9373 6.2952a5 5 0 0 0-0.3027 1.697 5 5 0 0 0 5 5 5 5 0 0 0 4.158-2.232 3 3 0 0 1-1.158 0.232 3 3 0 0 1-2.4648-1.295l-2.0606 1.225s-0.1399 0.122-0.3184 0.043c-0.2037-0.091-0.1503-0.323-0.1503-0.323v-2.65a3 3 0 0 1-0.0059 0 3 3 0 0 1-2.6973-1.697z" fill="currentColor"/>
  <path class="ColorScheme-Text" d="m9.99 5a3 3 0 0 0-2.4434 1.2656l2.6724 1.5879 2.464 1.4668a3 3 0 0 0 0.307-1.3203 3 3 0 0 0-3-3zm-5 3a3 3 0 0 0-3 3 3 3 0 0 0 3 3 3 3 0 0 0 0.0059 0v-6a3 3 0 0 0-0.0059 0zm7.676 4.65-2.457 1.459-2.6858 1.596a3 3 0 0 0 2.4668 1.295 3 3 0 0 0 3-3 3 3 0 0 0-0.324-1.35z" fill="currentColor" opacity=".35"/>
 </g>
 <g id="mellowplayer" transform="translate(2.01)">
  <rect x="-2.01" width="32" height="32" opacity=".001"/>
  <path class="ColorScheme-Text" d="m14.99 7a5 5 0 0 0-3.697 1.6445l8.384 5.0725a5 5 0 0 0 0.313-1.717 5 5 0 0 0-5-5zm-7 4a5 5 0 0 0-5 5 5 5 0 0 0 5 5zm11.688 7.283-8.383 5.071a5 5 0 0 0 3.695 1.646 5 5 0 0 0 5-5 5 5 0 0 0-0.312-1.717z" fill="currentColor" opacity=".35"/>
  <path class="ColorScheme-Text" d="m10.49 4a7.5 7.5 0 0 0-7.5 7.5 7.5 7.5 0 0 0 0.4336 2.479 5 5 0 0 1 4.5664-2.979v-3.5176a0.4604 0.48243 0 0 1 0.4707-0.4824 0.4604 0.48243 0 0 1 0.2207 0.0645l2.6116 1.58a5 5 0 0 1 3.697-1.6445 5 5 0 0 1 1.703 0.3027 7.5 7.5 0 0 0-6.203-3.3027zm8.066 4.502a5 5 0 0 1 1.434 3.498 5 5 0 0 1-0.313 1.717l3.083 1.865a0.4604 0.48243 0 0 1 0 0.836l-3.083 1.865a5 5 0 0 1 0.313 1.717 5 5 0 0 1-1.428 3.496 7.5 7.5 0 0 0 7.428-7.496 7.5 7.5 0 0 0-7.434-7.498zm-15.136 9.518a7.5 7.5 0 0 0-0.4297 2.48 7.5 7.5 0 0 0 7.5 7.5 7.5 7.5 0 0 0 6.211-3.309 5 5 0 0 1-1.711 0.309 5 5 0 0 1-3.695-1.646l-2.6136 1.582a0.4604 0.48243 0 0 1-0.6914-0.418v-3.518a5 5 0 0 1-4.5703-2.98z" fill="currentColor"/>
 </g>
</svg>

<svg xmlns="http://www.w3.org/2000/svg" width="32" height="32" x="0" y="0" version="1.1">
 <defs id="materia">
  <style id="current-color-scheme" type="text/css">
   .ColorScheme-Background {color:#181818; } .ColorScheme-ButtonBackground { color:#343434; } .ColorScheme-Highlight { color:#4285f4; } .ColorScheme-Text { color:#dfdfdf; } .ColorScheme-ViewBackground { color:#242424; } .ColorScheme-NegativeText { color:#f44336; } .ColorScheme-PositiveText { color:#4caf50; } .ColorScheme-NeutralText { color:#ff9800; }
  </style>
 </defs>
 <g id="22-22-mellowplayer" transform="translate(34.01,10)">
  <rect style="opacity:0.001" width="22" height="22" x="-2.01" y="0"/>
  <path style="fill:currentColor" class="ColorScheme-Text" d="M 6.99,3 A 5,5 0 0 0 1.99,8 5,5 0 0 0 2.2947,9.6875 3,3 0 0 1 4.99,8 3,3 0 0 1 4.9959,8 V 5.4043 C 4.9962,5.4043 4.9732,5.138 5.1814,5.0332 5.3837,4.9315 5.5779,5.0938 5.5779,5.0938 L 7.5466,6.2637 A 3,3 0 0 1 9.99,5 3,3 0 0 1 11.142,5.2324 5,5 0 0 0 6.99,3 Z M 12.23,6.0078 A 3,3 0 0 1 12.99,8 3,3 0 0 1 12.681,9.3184 L 14.707,10.523 C 14.707,10.523 14.99,10.663 14.99,10.996 14.99,11.33 14.703,11.439 14.703,11.439 L 12.668,12.648 A 3,3 0 0 1 12.99,14 3,3 0 0 1 12.232,15.988 5,5 0 0 0 16.99,11 5,5 0 0 0 12.23,6.0078 Z M 2.2927,12.303 A 5,5 0 0 0 1.99,14 5,5 0 0 0 6.99,19 5,5 0 0 0 11.148,16.768 3,3 0 0 1 9.99,17 3,3 0 0 1 7.5252,15.705 L 5.4646,16.93 C 5.4646,16.93 5.3247,17.052 5.1462,16.973 4.9425,16.882 4.9959,16.65 4.9959,16.65 V 14 A 3,3 0 0 1 4.99,14 3,3 0 0 1 2.2927,12.303 Z"/>
  <path style="opacity:0.35;fill:currentColor" class="ColorScheme-Text" d="M 9.99,5 A 3,3 0 0 0 7.5466,6.2656 L 10.219,7.8535 12.683,9.3203 A 3,3 0 0 0 12.99,8 3,3 0 0 0 9.99,5 Z M 4.99,8 A 3,3 0 0 0 1.99,11 3,3 0 0 0 4.99,14 3,3 0 0 0 4.9959,14 V 10.982 8 A 3,3 0 0 0 4.99,8 Z M 12.666,12.65 10.209,14.109 7.5232,15.705 A 3,3 0 0 0 9.99,17 3,3 0 0 0 12.99,14 3,3 0 0 0 12.666,12.65 Z"/>
 </g>
 <g id="mellowplayer" transform="translate(2.01)">
  <rect style="opacity:0.001" width="32" height="32" x="-2.01" y="0"/>
  <path style="opacity:0.35;fill:currentColor" class="ColorScheme-Text" d="M 14.99,7 A 5,5 0 0 0 11.293,8.6445 L 19.677,13.717 A 5,5 0 0 0 19.99,12 5,5 0 0 0 14.99,7 Z M 7.99,11 A 5,5 0 0 0 2.99,16 5,5 0 0 0 7.99,21 Z M 19.678,18.283 11.295,23.354 A 5,5 0 0 0 14.99,25 5,5 0 0 0 19.99,20 5,5 0 0 0 19.678,18.283 Z"/>
  <path style="fill:currentColor" class="ColorScheme-Text" d="M 10.49,4 A 7.5,7.5 0 0 0 2.99,11.5 7.5,7.5 0 0 0 3.4236,13.979 5,5 0 0 1 7.99,11 V 7.4824 A 0.4604,0.48243 0 0 1 8.4607,7 0.4604,0.48243 0 0 1 8.6814,7.0645 L 11.293,8.6445 A 5,5 0 0 1 14.99,7 5,5 0 0 1 16.693,7.3027 7.5,7.5 0 0 0 10.49,4 Z M 18.556,8.502 A 5,5 0 0 1 19.99,12 5,5 0 0 1 19.677,13.717 L 22.76,15.582 A 0.4604,0.48243 0 0 1 22.76,16.418 L 19.677,18.283 A 5,5 0 0 1 19.99,20 5,5 0 0 1 18.562,23.496 7.5,7.5 0 0 0 25.99,16 7.5,7.5 0 0 0 18.556,8.502 Z M 3.4197,18.02 A 7.5,7.5 0 0 0 2.99,20.5 7.5,7.5 0 0 0 10.49,28 7.5,7.5 0 0 0 16.701,24.691 5,5 0 0 1 14.99,25 5,5 0 0 1 11.295,23.354 L 8.6814,24.936 A 0.4604,0.48243 0 0 1 7.99,24.518 V 21 A 5,5 0 0 1 3.4197,18.02 Z"/>
 </g>
</svg>
